icons-dark/actions/16/document-close.svg

<svg xmlns="http://www.w3.org/2000/svg" viewBox="0 0 16 16">
  <defs id="defs3051">
    <style type="text/css" id="current-color-scheme">
      .ColorScheme-Text {
        color:#eff0f1;
      }
      .ColorScheme-NegativeText {
        color:#da4453;
      }
      </style>
  </defs>
  <path
     style="fill:currentColor;fill-opacity:1;stroke:none" 
     class="ColorScheme-NegativeText"
     d="m3 2v12h5v-1h-4v-10h8v5h1v-6h-9zm6.707 7.03l-.707.707 1.793 1.793-1.793 1.793.707.707 1.793-1.793 1.793 1.793.707-.707-1.793-1.793 1.793-1.793-.707-.707-1.793 1.793z"
      />
</svg>

<!DOCTYPE svg>
<svg version="1.1" xmlns="http://www.w3.org/2000/svg" viewBox="0 0 16 16">
    <defs>
        <style type="text/css" id="current-color-scheme">
            .ColorScheme-NegativeText {
                color:#da4453;
            }
        </style>
    </defs>
    <path d="M 3 2 L 3 14 L 8 14 L 8 13 L 4 13 L 4 3 L 9 3 L 9 6 L 12 6 L 12 8 L 13 8 L 13 5 L 10 2 L 3 2 Z M 9.707 9.03 L 9 9.737 L 10.793 11.53 L 9 13.323 L 9.707 14.03 L 11.5 12.237 L 13.293 14.03 L 14 13.323 L 12.207 11.53 L 14 9.737 L 13.293 9.03 L 11.5 10.823 L 9.707 9.03 Z" style="fill:currentColor; fill-opacity:1; stroke:none" class="ColorScheme-NegativeText"/>
</svg>
